TestApp.Web/wwwroot/images/banner_green.svg

<?xml version="1.0" encoding="UTF-8"?>
<!DOCTYPE svg  PUBLIC '-//W3C//DTD SVG 1.1//EN'  'http://www.w3.org/Graphics/SVG/1.1/DTD/svg11.dtd'>
<svg width="279.4mm" height="215.9mm" fill-rule="evenodd" stroke-linejoin="round" stroke-width="28.222" preserveAspectRatio="xMidYMid" version="1.2" viewBox="0 0 27940 21590" xml:space="preserve" xmlns="http://www.w3.org/2000/svg" xmlns:ooo="http://xml.openoffice.org/svg/export">
 <defs class="ClipPathGroup">
  <clipPath id="a">
   <rect width="27940" height="21590"/>
  </clipPath>
  
 </defs>
 <defs class="TextShapeIndex">
  
 </defs>
 <defs class="EmbeddedBulletChars">
  
  
  
  
  
  
  
  
  
  
 </defs>
 
  <g class="Master_Slide">
   
   
  </g>
 
 <g class="SlideGroup">
  
   
    <g class="Slide" clip-path="url(#a)">
     <g class="Page">
      <g class="com.sun.star.drawing.CustomShape">
       <g>
        <rect class="BoundingBox" width="27941" height="21591" fill="none"/>
        <path d="m13970 21590h-13970v-21590h27940v21590h-13970z" fill="#198e5d"/>
       </g>
      </g>
      <g class="com.sun.star.drawing.CustomShape">
       <g>
        <rect class="BoundingBox" x="999" y="999" width="13655" height="13655" fill="none"/>
        <path d="m14653 7826c0 1199-315 2376-915 3414-599 1038-1460 1899-2498 2498-1038 600-2215 915-3413 915-1199 0-2376-315-3414-915-1038-599-1899-1460-2498-2498-600-1038-915-2215-915-3413 0-1199 315-2376 915-3414 599-1038 1460-1899 2498-2498 1038-600 2215-915 3413-915 1199 0 2376 315 3414 915 1038 599 1899 1460 2498 2498 600 1038 915 2215 915 3413z" fill="#23a56c"/>
       </g>
      </g>
      <g class="com.sun.star.drawing.CustomShape">
       <g>
        <rect class="BoundingBox" x="18779" y="10524" width="9306" height="10480" fill="none"/>
        <path d="m28083 15764c0 919-215 1823-623 2619-409 797-996 1458-1703 1918s-1509 702-2326 702-1619-242-2326-702-1294-1121-1703-1918c-408-796-623-1700-623-2619 0-920 215-1824 623-2620 409-797 996-1458 1703-1918s1509-702 2326-702 1619 242 2326 702 1294 1121 1703 1918c408 796 623 1700 623 2619v1z" fill="#23a56c"/>
       </g>
      </g>
      <g class="com.sun.star.drawing.CustomShape">
       <g>
        <rect class="BoundingBox" x="16875" y="1951" width="6352" height="6671" fill="none"/>
        <path d="m23226 5287c0 585-147 1160-425 1667-279 507-680 928-1163 1220-482 293-1030 447-1587 447-558 0-1106-154-1588-447-483-292-884-713-1163-1220-278-507-425-1082-425-1667 0-586 147-1161 425-1668 279-507 680-928 1163-1220 482-293 1030-447 1587-447 558 0 1106 154 1588 447 483 292 884 713 1163 1220 278 507 425 1082 425 1667v1z" fill="#23a56c"/>
       </g>
      </g>
     </g>
    </g>
   
  
 </g>
</svg>

<?xml version="1.0" encoding="UTF-8"?>
<!DOCTYPE svg PUBLIC "-//W3C//DTD SVG 1.1//EN" "http://www.w3.org/Graphics/SVG/1.1/DTD/svg11.dtd">
<svg version="1.2" width="279.4mm" height="215.9mm" viewBox="0 0 27940 21590" preserveAspectRatio="xMidYMid" fill-rule="evenodd" stroke-width="28.222" stroke-linejoin="round" xmlns="http://www.w3.org/2000/svg" xmlns:ooo="http://xml.openoffice.org/svg/export" xmlns:xlink="http://www.w3.org/1999/xlink" xmlns:presentation="http://sun.com/xmlns/staroffice/presentation" xmlns:smil="http://www.w3.org/2001/SMIL20/" xmlns:anim="urn:oasis:names:tc:opendocument:xmlns:animation:1.0" xml:space="preserve">
 <defs class="ClipPathGroup">
  <clipPath id="presentation_clip_path" clipPathUnits="userSpaceOnUse">
   <rect x="0" y="0" width="27940" height="21590"/>
  </clipPath>
  <clipPath id="presentation_clip_path_shrink" clipPathUnits="userSpaceOnUse">
   <rect x="27" y="21" width="27885" height="21547"/>
  </clipPath>
 </defs>
 <defs class="TextShapeIndex">
  <g ooo:slide="id1" ooo:id-list="id3 id4 id5 id6"/>
 </defs>
 <defs class="EmbeddedBulletChars">
  <g id="bullet-char-template-57356" transform="scale(0.00048828125,-0.00048828125)">
   <path d="M 580,1141 L 1163,571 580,0 -4,571 580,1141 Z"/>
  </g>
  <g id="bullet-char-template-57354" transform="scale(0.00048828125,-0.00048828125)">
   <path d="M 8,1128 L 1137,1128 1137,0 8,0 8,1128 Z"/>
  </g>
  <g id="bullet-char-template-10146" transform="scale(0.00048828125,-0.00048828125)">
   <path d="M 174,0 L 602,739 174,1481 1456,739 174,0 Z M 1358,739 L 309,1346 659,739 1358,739 Z"/>
  </g>
  <g id="bullet-char-template-10132" transform="scale(0.00048828125,-0.00048828125)">
   <path d="M 2015,739 L 1276,0 717,0 1260,543 174,543 174,936 1260,936 717,1481 1274,1481 2015,739 Z"/>
  </g>
  <g id="bullet-char-template-10007" transform="scale(0.00048828125,-0.00048828125)">
   <path d="M 0,-2 C -7,14 -16,27 -25,37 L 356,567 C 262,823 215,952 215,954 215,979 228,992 255,992 264,992 276,990 289,987 310,991 331,999 354,1012 L 381,999 492,748 772,1049 836,1024 860,1049 C 881,1039 901,1025 922,1006 886,937 835,863 770,784 769,783 710,716 594,584 L 774,223 C 774,196 753,168 711,139 L 727,119 C 717,90 699,76 672,76 641,76 570,178 457,381 L 164,-76 C 142,-110 111,-127 72,-127 30,-127 9,-110 8,-76 1,-67 -2,-52 -2,-32 -2,-23 -1,-13 0,-2 Z"/>
  </g>
  <g id="bullet-char-template-10004" transform="scale(0.00048828125,-0.00048828125)">
   <path d="M 285,-33 C 182,-33 111,30 74,156 52,228 41,333 41,471 41,549 55,616 82,672 116,743 169,778 240,778 293,778 328,747 346,684 L 369,508 C 377,444 397,411 428,410 L 1163,1116 C 1174,1127 1196,1133 1229,1133 1271,1133 1292,1118 1292,1087 L 1292,965 C 1292,929 1282,901 1262,881 L 442,47 C 390,-6 338,-33 285,-33 Z"/>
  </g>
  <g id="bullet-char-template-9679" transform="scale(0.00048828125,-0.00048828125)">
   <path d="M 813,0 C 632,0 489,54 383,161 276,268 223,411 223,592 223,773 276,916 383,1023 489,1130 632,1184 813,1184 992,1184 1136,1130 1245,1023 1353,916 1407,772 1407,592 1407,412 1353,268 1245,161 1136,54 992,0 813,0 Z"/>
  </g>
  <g id="bullet-char-template-8226" transform="scale(0.00048828125,-0.00048828125)">
   <path d="M 346,457 C 273,457 209,483 155,535 101,586 74,649 74,723 74,796 101,859 155,911 209,963 273,989 346,989 419,989 480,963 531,910 582,859 608,796 608,723 608,648 583,586 532,535 482,483 420,457 346,457 Z"/>
  </g>
  <g id="bullet-char-template-8211" transform="scale(0.00048828125,-0.00048828125)">
   <path d="M -4,459 L 1135,459 1135,606 -4,606 -4,459 Z"/>
  </g>
  <g id="bullet-char-template-61548" transform="scale(0.00048828125,-0.00048828125)">
   <path d="M 173,740 C 173,903 231,1043 346,1159 462,1274 601,1332 765,1332 928,1332 1067,1274 1183,1159 1299,1043 1357,903 1357,740 1357,577 1299,437 1183,322 1067,206 928,148 765,148 601,148 462,206 346,322 231,437 173,577 173,740 Z"/>
  </g>
 </defs>
 <g>
  <g id="id2" class="Master_Slide">
   <g id="bg-id2" class="Background"/>
   <g id="bo-id2" class="BackgroundObjects"/>
  </g>
 </g>
 <g class="SlideGroup">
  <g>
   <g id="container-id1">
    <g id="id1" class="Slide" clip-path="url(#presentation_clip_path)">
     <g class="Page">
      <g class="com.sun.star.drawing.CustomShape">
       <g id="id3">
        <rect class="BoundingBox" stroke="none" fill="none" x="0" y="0" width="27941" height="21591"/>
        <path fill="rgb(25,142,93)" stroke="none" d="M 13970,21590 L 0,21590 0,0 27940,0 27940,21590 13970,21590 Z"/>
       </g>
      </g>
      <g class="com.sun.star.drawing.CustomShape">
       <g id="id4">
        <rect class="BoundingBox" stroke="none" fill="none" x="999" y="999" width="13655" height="13655"/>
        <path fill="rgb(35,165,108)" stroke="none" d="M 14653,7826 C 14653,9025 14338,10202 13738,11240 13139,12278 12278,13139 11240,13738 10202,14338 9025,14653 7827,14653 6628,14653 5451,14338 4413,13738 3375,13139 2514,12278 1915,11240 1315,10202 1000,9025 1000,7827 1000,6628 1315,5451 1915,4413 2514,3375 3375,2514 4413,1915 5451,1315 6628,1000 7826,1000 9025,1000 10202,1315 11240,1915 12278,2514 13139,3375 13738,4413 14338,5451 14653,6628 14653,7826 L 14653,7826 Z"/>
       </g>
      </g>
      <g class="com.sun.star.drawing.CustomShape">
       <g id="id5">
        <rect class="BoundingBox" stroke="none" fill="none" x="18779" y="10524" width="9306" height="10480"/>
        <path fill="rgb(35,165,108)" stroke="none" d="M 28083,15764 C 28083,16683 27868,17587 27460,18383 27051,19180 26464,19841 25757,20301 25050,20761 24248,21003 23431,21003 22614,21003 21812,20761 21105,20301 20398,19841 19811,19180 19402,18383 18994,17587 18779,16683 18779,15764 18779,14844 18994,13940 19402,13144 19811,12347 20398,11686 21105,11226 21812,10766 22614,10524 23431,10524 24248,10524 25050,10766 25757,11226 26464,11686 27051,12347 27460,13144 27868,13940 28083,14844 28083,15763 L 28083,15764 Z"/>
       </g>
      </g>
      <g class="com.sun.star.drawing.CustomShape">
       <g id="id6">
        <rect class="BoundingBox" stroke="none" fill="none" x="16875" y="1951" width="6352" height="6671"/>
        <path fill="rgb(35,165,108)" stroke="none" d="M 23226,5287 C 23226,5872 23079,6447 22801,6954 22522,7461 22121,7882 21638,8174 21156,8467 20608,8621 20051,8621 19493,8621 18945,8467 18463,8174 17980,7882 17579,7461 17300,6954 17022,6447 16875,5872 16875,5287 16875,4701 17022,4126 17300,3619 17579,3112 17980,2691 18463,2399 18945,2106 19493,1952 20050,1952 20608,1952 21156,2106 21638,2399 22121,2691 22522,3112 22801,3619 23079,4126 23226,4701 23226,5286 L 23226,5287 Z"/>
       </g>
      </g>
     </g>
    </g>
   </g>
  </g>
 </g>
</svg>
